rospo-icon-theme-classic-common/22x22/apps/resolve.svg

<svg height="22" viewBox="0 0 22 22" width="22" xmlns="http://www.w3.org/2000/svg"><path d="m10.79051 20.5h-.563255c-.02613-.0095-.05234-.01187-.07871-.01187-.300722-.01425-.59926-.03848-.895185-.07871-.5535625-.071633-1.097865-.193375-1.62768-.362618-.9092925-.290985-1.75655-.708557-2.5417725-1.252717-.7281275-.50597-1.372275-1.102428-1.93325-1.789468-.6613425-.80655-1.17667-1.696652-1.5419925-2.674724-.327085-.868538-.5227375-1.767903-.58254-2.696196 0-.050112-.0095-.100224-.026125-.150337v-.980685c.016625-.043225.02375-.08835.026125-.133617.011875-.221968.035625-.443935.0646-.66329.1433075-1.059345.4581375-2.064113.9427325-3.016203.334115-.65626.7399075-1.266825 1.217045-1.83027.472625-.55822 1.0024875-1.0571125 1.589445-1.4936375.957125-.71117 2.009725-1.2241225 3.159985-1.538905.55841-.1525225 1.1290275-.2527475 1.7063895-.3006275.102506-.0095.21014 0 .312645-.026125h.964203c.07391.021375.150385.0095.224248.016625.38209.03325.761519.081273 1.138385.155135 1.186264.2338425 2.286364.6777775 3.303292 1.33361.790115.5082025 1.486987 1.12138 2.09551 1.8347825.489392.5727075.904447 1.1955275 1.243455 1.8681275.400947.7947225.68723 1.627255.84987 2.50287.08579.46284.150385.930525.15257 1.403007 0 .03135.0071.0646.0095.09538v.56316c-.0095.03562-.0095.07386-.01187.112052 0 .09058 0 .181545-.0071.27208-.04323.577553-.133665 1.147695-.276972 1.71076-.274408 1.057113-.716206 2.037797-1.329573 2.94196-.455952.672932-.988 1.27908-1.599135 1.815782-.608522.534518-1.274615.98553-1.99785 1.350378-.83315.419805-1.709003.71117-2.627938.87077-.353115.06199-.708795.102457-1.066707.123975-.09429.01093-.19456.0085-.292552.02945z" opacity=".2"/><path d="m10.79051 20h-.563255c-.02613-.0095-.05234-.01187-.07871-.01187-.300722-.01425-.59926-.03848-.895185-.07871-.5535625-.071633-1.097865-.193375-1.62768-.362618-.9092925-.290985-1.75655-.708557-2.5417725-1.252717-.7281275-.50597-1.372275-1.102428-1.93325-1.789468-.6613425-.80655-1.17667-1.696652-1.5419925-2.674724-.327085-.868538-.5227375-1.767903-.58254-2.696196 0-.050112-.0095-.100224-.026125-.150337v-.980685c.016625-.043225.02375-.08835.026125-.133617.011875-.221968.035625-.443935.0646-.66329.1433075-1.059345.4581375-2.064113.9427325-3.016203.334115-.65626.7399075-1.266825 1.217045-1.83027.472625-.55822 1.0024875-1.0571125 1.589445-1.4936375.957125-.71117 2.009725-1.2241225 3.159985-1.538905.55841-.1525225 1.1290275-.2527475 1.7063895-.3006275.102506-.0095.21014 0 .312645-.026125h.964203c.07391.021375.150385.0095.224248.016625.38209.03325.761519.081273 1.138385.155135 1.186264.2338425 2.286364.6777775 3.303292 1.33361.790115.5082025 1.486987 1.12138 2.09551 1.8347825.489392.5727075.904447 1.1955275 1.243455 1.8681275.400947.7947225.68723 1.627255.84987 2.50287.08579.46284.150385.930525.15257 1.403007 0 .03135.0071.0646.0095.09538v.56316c-.0095.03562-.0095.07386-.01187.112052 0 .09058 0 .181545-.0071.27208-.04323.577553-.133665 1.147695-.276972 1.71076-.274408 1.057113-.716206 2.037797-1.329573 2.94196-.455952.672932-.988 1.27908-1.599135 1.815782-.608522.534518-1.274615.98553-1.99785 1.350378-.83315.419805-1.709003.71117-2.627938.87077-.353115.06199-.708795.102457-1.066707.123975-.09429.01093-.19456.0085-.292552.02945z" fill="#4f4f4f"/><path d="m6.6644343 15.499309c.1631829.0047.3464064-.0145.5295809-.05156.5419398-.112984 1.0022394-.347655 1.3559833-.76371.2151298-.253712.3959903-.528664.5518865-.817838.183271-.340733.33641-.695733.46995-1.055085.163182-.434673.301744-.878846.408399-1.32779.05925-.251513-.0074-.409082-.299431-.495728-.371026-.110409-.7448101-.209124-1.1258313-.289173-.6308197-.131651-1.2666615-.216097-1.9152069-.195278-.1832235.007-.3660529.02573-.5469129.05628-.5246072.08707-.9698887.317387-1.3335781.681509-.6212169.62041-.8683052 1.36068-.7151183 2.204485.220154 1.205729 1.3436226 2.063383 2.6202788 2.053885z" opacity=".2"/><path d="m6.6644343 14.999309c.1631829.0047.3464064-.0145.5295809-.05156.5419398-.112984 1.0022394-.347655 1.3559833-.76371.2151298-.253712.3959903-.528664.5518865-.817838.183271-.340733.33641-.695733.46995-1.055085.163182-.434673.301744-.878846.408399-1.32779.05925-.251513-.0074-.409082-.299431-.495728-.371026-.110409-.7448101-.209124-1.1258313-.289173-.6308197-.131651-1.2666615-.216097-1.9152069-.195278-.1832235.007-.3660529.02573-.5469129.05628-.5246072.08707-.9698887.317387-1.3335781.681509-.6212169.62041-.8683052 1.36068-.7151183 2.204485.220154 1.205729 1.3436226 2.063383 2.6202788 2.053885z" fill="#e9ff61"/><path d="m8.0009396 6.9606963c-.00699.1714947.025645.3589687.079776.546488.1031355.3567832.2740645.6837017.4756272.9925017.4591672.702231 1.0379282 1.30344 1.6658812 1.861628.05143.04588.112647.08463.178203.114178.06565.03188.131205.03188.199043.0045.06556-.02732.124211-.0662.173448-.116682.217928-.210282.433337-.420884.639608-.638222.290477-.308799.567107-.626476.817811-.96728.22744-.308665.431147-.63349.580954-.9856745.149809-.3500457.222637-.7111084.173447-1.0907452-.08201-.6264764-.356031-1.1572582-.845833-1.5734521-.579134-.4913306-1.253712-.6880464-2.012868-.5784665-1.2347357.1785963-2.1298529 1.23975-2.1250974 2.4311523z" opacity=".2"/><path d="m8.0009396 6.4606963c-.00699.1714947.025645.3589687.079776.546488.1031355.3567832.2740645.6837014.4756272.9925014.4591672.7022313 1.0379282 1.3034403 1.6658812 1.8616283.05143.04588.112647.08463.178203.114178.06565.03188.131205.03188.199043.0045.06556-.02732.124211-.0662.173448-.116682.217928-.210282.433337-.420884.639608-.638222.290477-.308799.567107-.626476.817811-.96728.22744-.3086654.431147-.6334897.580954-.9856745.149809-.3500457.222637-.7111084.173447-1.0907452-.08201-.6264764-.356031-1.1572582-.845833-1.5734521-.579134-.4913306-1.253712-.6880464-2.012868-.5784665-1.2347357.1785963-2.1298529 1.23975-2.1250974 2.4311523z" fill="#10b7d6"/><path d="m14.335569 15.499309c-.163184.0047-.346407-.0145-.529581-.05156-.541942-.112984-1.002242-.347655-1.355985-.76371-.215132-.253712-.395992-.528664-.551887-.817838-.183273-.340733-.336412-.695733-.469952-1.055085-.163183-.434673-.301746-.878846-.408401-1.32779-.05925-.251513.0075-.409082.299432-.495728.371027-.110411.744812-.209126 1.125834-.289175.63082-.131651 1.266664-.216097 1.915209-.195278.183223.007.366054.02573.546915.05628.524607.08707.969889.317387 1.33358.681509.621218.62041.868307 1.36068.71512 2.204485-.220155 1.205729-1.343626 2.063383-2.620284 2.053885z" opacity=".2"/><path d="m14.335569 14.999309c-.163184.0047-.346407-.0145-.529581-.05156-.541942-.112984-1.002242-.347655-1.355985-.76371-.215132-.253712-.395992-.528664-.551887-.817838-.183273-.340733-.336412-.695733-.469952-1.055085-.163183-.434673-.301746-.878846-.408401-1.32779-.05925-.251513.0075-.409082.299432-.495728.371027-.110411.744812-.209126 1.125834-.289175.63082-.131651 1.266664-.216097 1.915209-.195278.183223.007.366054.02573.546915.05628.524607.08707.969889.317387 1.33358.681509.621218.62041.868307 1.36068.71512 2.204485-.220155 1.205729-1.343626 2.063383-2.620284 2.053885z" fill="#ff5e5e"/><g fill="#fff"><path d="m10.019531 1c-.102505.026125-.209994.015891-.3125.025391-.577362.0478796-1.148621.1482584-1.707031.3007809-1.15026.3147825-2.2030313.8278925-3.1601562 1.5390625-.5869575.436525-1.1172188.9359206-1.5898438 1.4941406-.4771375.563445-.8826819 1.1738181-1.2167969 1.8300781-.484595.95209-.8000518 1.9562799-.9433593 3.0156249-.0289751.219355-.0525782.442095-.0644532.664063-.002375.045267-.0087656.089587-.0253906.132812v.5c.016625-.04322.023016-.08755.025391-.132812.011875-.221968.035478-.444708.064453-.664063.1433073-1.059345.4587641-2.0635349.9433591-3.0156249.334115-.65626.7396594-1.2666331 1.2167969-1.8300781.472625-.55822 1.0028863-1.0576156 1.5898438-1.4941406.9571249-.71117 2.0098962-1.22428 3.1601562-1.5390625.55841-.1525225 1.129669-.2529013 1.707031-.3007813.102506-.0095.209995.0007344.3125-.0253906h.962891c.07391.021375.150746.010453.224609.017578.38209.03325.761806.080435 1.138672.1542969 1.186264.2338425 2.285807.6781519 3.302735 1.3339844.790115.5082025 1.48718 1.1205819 2.095703 1.8339844.489392.5727074.905132 1.1965406 1.24414 1.8691406.400947.7947225.68697 1.6263386.84961 2.5019537.08579.462839.150158.929861.152343 1.402343 0 .03135.0074.06492.0098.0957v-.5c-.0024-.03078-.0098-.06435-.0098-.0957-.0022-.472482-.06655-.939504-.152343-1.4023431-.16264-.8756154-.448663-1.707231-.84961-2.5019535-.339008-.6726-.754748-1.2964332-1.24414-1.8691406-.608523-.7134025-1.305588-1.3257819-2.095703-1.8339844-1.016928-.6558325-2.116471-1.1001419-3.302735-1.3339844-.376866-.073862-.756582-.1210469-1.138672-.1542969-.073863-.007125-.150699.0037969-.224609-.0175781z" opacity=".1"/><path d="m6.640625 10.003906c-.1832235.007-.366015.02414-.546875.05469-.5246072.08707-.970295.317518-1.3339844.68164-.5594038.558678-.796915 1.219794-.7304687 1.960938.062557-.53942.30011-1.031138.7304687-1.460938.3636894-.364122.8093772-.59457 1.3339844-.68164.18086-.03055.3636515-.04769.546875-.05469.6485454-.02082 1.2832428.06366 1.9140625.195313.3810212.08005.7559275.178653 1.1269535.289062.123702.0367.199617.08844.25.152344.0136-.05335.03612-.104707.04883-.158203.05925-.251513-.0068-.407495-.298828-.494141-.371028-.110409-.7459343-.209013-1.1269555-.289062-.6308197-.131651-1.2655171-.216132-1.9140625-.195313z" opacity=".1"/><path d="m10.679688 4.0039062c-.179047-.010709-.362946-.002-.552735.025391-1.2347356.178596-2.1317085 1.240238-2.126953 2.4316403-.0024977.0612795.0225029.1306795.0292969.1953125.1343049-1.0623323.9699589-1.9638392 2.0976561-2.1269531.759156-.1095799 1.432585.086794 2.011719.578125.477607.4058321.746632.9230753.835937 1.5292969.01759-.1494951.02987-.299892.0098-.4550782-.082044-.6264764-.355935-1.1580248-.845737-1.5742187-.434351-.368498-.921844-.5713872-1.458984-.6035157z" opacity=".1"/><path d="m14.359375 10.003906c-.648545-.02082-1.283243.06366-1.914063.195313-.381021.08005-.755926.178651-1.126953.289062-.291932.08665-.358078.242628-.298828.494141.01271.0535.03522.10485.04883.158203.05039-.0639.12634-.115641.25-.152344.371027-.110411.745932-.209013 1.126953-.289062.63082-.131651 1.265518-.216132 1.914063-.195313.183223.007.366014.02414.546875.05469.524607.08707.970293.317518 1.333984.68164.43036.4298.667912.921518.730469 1.460938.06645-.741144-.171064-1.40226-.730469-1.960938-.363691-.364122-.809377-.59457-1.333984-.68164-.180861-.03055-.363652-.04769-.546875-.05469z" opacity=".1"/></g></svg>

<svg xmlns="http://www.w3.org/2000/svg" width="22" height="22" version="1.1" viewBox="0 0 22 22">
 <path style="opacity:0.2" d="m 10.79051,20.5 -0.563255,0 c -0.02613,-0.0095 -0.05234,-0.01187 -0.07871,-0.01187 C 9.847823,20.47388 9.549285,20.44965 9.25336,20.40942 8.6997975,20.337787 8.155495,20.216045 7.62568,20.046802 6.7163875,19.755817 5.86913,19.338245 5.0839075,18.794085 4.35578,18.288115 3.7116325,17.691657 3.1506575,17.004617 2.489315,16.198067 1.9739875,15.307965 1.608665,14.329893 1.28158,13.461355 1.0859275,12.56199 1.026125,11.633697 1.026125,11.583585 1.016625,11.533473 1,11.48336 L 1,10.502675 C 1.016625,10.45945 1.02375,10.414325 1.026125,10.369058 1.038,10.14709 1.06175,9.925123 1.090725,9.705768 1.2340325,8.646423 1.5488625,7.641655 2.0334575,6.689565 2.3675725,6.033305 2.773365,5.42274 3.2505025,4.859295 3.7231275,4.301075 4.25299,3.8021825 4.8399475,3.3656575 5.7970725,2.6544875 6.8496725,2.141535 7.9999325,1.8267525 8.5583425,1.67423 9.12896,1.574005 9.706322,1.526125 c 0.102506,-0.0095 0.21014,0 0.312645,-0.026125 l 0.964203,0 c 0.07391,0.021375 0.150385,0.0095 0.224248,0.016625 0.38209,0.03325 0.761519,0.081273 1.138385,0.155135 1.186264,0.2338425 2.286364,0.6777775 3.303292,1.33361 0.790115,0.5082025 1.486987,1.12138 2.09551,1.8347825 0.489392,0.5727075 0.904447,1.1955275 1.243455,1.8681275 0.400947,0.7947225 0.68723,1.627255 0.84987,2.50287 0.08579,0.46284 0.150385,0.930525 0.15257,1.403007 0,0.03135 0.0071,0.0646 0.0095,0.09538 l 0,0.56316 c -0.0095,0.03562 -0.0095,0.07386 -0.01187,0.112052 0,0.09058 0,0.181545 -0.0071,0.27208 -0.04323,0.577553 -0.133665,1.147695 -0.276972,1.71076 -0.274408,1.057113 -0.716206,2.037797 -1.329573,2.94196 -0.455952,0.672932 -0.988,1.27908 -1.599135,1.815782 -0.608522,0.534518 -1.274615,0.98553 -1.99785,1.350378 -0.83315,0.419805 -1.709003,0.71117 -2.627938,0.87077 -0.353115,0.06199 -0.708795,0.102457 -1.066707,0.123975 -0.09429,0.01093 -0.19456,0.0085 -0.292552,0.02945 z"/>
 <path style="fill:#4f4f4f" d="m 10.79051,20 -0.563255,0 c -0.02613,-0.0095 -0.05234,-0.01187 -0.07871,-0.01187 C 9.847823,19.97388 9.549285,19.94965 9.25336,19.90942 8.6997975,19.837787 8.155495,19.716045 7.62568,19.546802 6.7163875,19.255817 5.86913,18.838245 5.0839075,18.294085 4.35578,17.788115 3.7116325,17.191657 3.1506575,16.504617 2.489315,15.698067 1.9739875,14.807965 1.608665,13.829893 1.28158,12.961355 1.0859275,12.06199 1.026125,11.133697 1.026125,11.083585 1.016625,11.033473 1,10.98336 L 1,10.002675 C 1.016625,9.95945 1.02375,9.914325 1.026125,9.869058 1.038,9.64709 1.06175,9.425123 1.090725,9.205768 1.2340325,8.146423 1.5488625,7.141655 2.0334575,6.189565 2.3675725,5.533305 2.773365,4.92274 3.2505025,4.359295 3.7231275,3.801075 4.25299,3.3021825 4.8399475,2.8656575 5.7970725,2.1544875 6.8496725,1.641535 7.9999325,1.3267525 8.5583425,1.17423 9.12896,1.074005 9.706322,1.026125 c 0.102506,-0.0095 0.21014,0 0.312645,-0.026125 l 0.964203,0 c 0.07391,0.021375 0.150385,0.0095 0.224248,0.016625 0.38209,0.03325 0.761519,0.081273 1.138385,0.155135 1.186264,0.2338425 2.286364,0.6777775 3.303292,1.33361 0.790115,0.5082025 1.486987,1.12138 2.09551,1.8347825 0.489392,0.5727075 0.904447,1.1955275 1.243455,1.8681275 0.400947,0.7947225 0.68723,1.627255 0.84987,2.50287 0.08579,0.46284 0.150385,0.930525 0.15257,1.403007 0,0.03135 0.0071,0.0646 0.0095,0.09538 l 0,0.56316 c -0.0095,0.03562 -0.0095,0.07386 -0.01187,0.112052 0,0.09058 0,0.181545 -0.0071,0.27208 -0.04323,0.577553 -0.133665,1.147695 -0.276972,1.71076 -0.274408,1.057113 -0.716206,2.037797 -1.329573,2.94196 -0.455952,0.672932 -0.988,1.27908 -1.599135,1.815782 -0.608522,0.534518 -1.274615,0.98553 -1.99785,1.350378 -0.83315,0.419805 -1.709003,0.71117 -2.627938,0.87077 -0.353115,0.06199 -0.708795,0.102457 -1.066707,0.123975 -0.09429,0.01093 -0.19456,0.0085 -0.292552,0.02945 z"/>
 <path style="opacity:0.2" d="m 6.6644343,15.499309 c 0.1631829,0.0047 0.3464064,-0.0145 0.5295809,-0.05156 0.5419398,-0.112984 1.0022394,-0.347655 1.3559833,-0.76371 0.2151298,-0.253712 0.3959903,-0.528664 0.5518865,-0.817838 0.183271,-0.340733 0.33641,-0.695733 0.46995,-1.055085 0.163182,-0.434673 0.301744,-0.878846 0.408399,-1.32779 0.05925,-0.251513 -0.0074,-0.409082 -0.299431,-0.495728 C 9.309777,10.877189 8.9359929,10.778474 8.5549717,10.698425 7.924152,10.566774 7.2883102,10.482328 6.6397648,10.503147 c -0.1832235,0.007 -0.3660529,0.02573 -0.5469129,0.05628 -0.5246072,0.08707 -0.9698887,0.317387 -1.3335781,0.681509 -0.6212169,0.62041 -0.8683052,1.36068 -0.7151183,2.204485 0.220154,1.205729 1.3436226,2.063383 2.6202788,2.053885 z"/>
 <path style="fill:#e9ff61" d="m 6.6644343,14.999309 c 0.1631829,0.0047 0.3464064,-0.0145 0.5295809,-0.05156 0.5419398,-0.112984 1.0022394,-0.347655 1.3559833,-0.76371 0.2151298,-0.253712 0.3959903,-0.528664 0.5518865,-0.817838 0.183271,-0.340733 0.33641,-0.695733 0.46995,-1.055085 0.163182,-0.434673 0.301744,-0.878846 0.408399,-1.32779 0.05925,-0.251513 -0.0074,-0.409082 -0.299431,-0.495728 C 9.309777,10.377189 8.9359929,10.278474 8.5549717,10.198425 7.924152,10.066774 7.2883102,9.982328 6.6397648,10.003147 c -0.1832235,0.007 -0.3660529,0.02573 -0.5469129,0.05628 -0.5246072,0.08707 -0.9698887,0.317387 -1.3335781,0.681509 -0.6212169,0.62041 -0.8683052,1.36068 -0.7151183,2.204485 0.220154,1.205729 1.3436226,2.063383 2.6202788,2.053885 z"/>
 <path style="opacity:0.2" d="m 8.0009396,6.9606963 c -0.00699,0.1714947 0.025645,0.3589687 0.079776,0.546488 0.1031355,0.3567832 0.2740645,0.6837017 0.4756272,0.9925017 0.4591672,0.702231 1.0379282,1.30344 1.6658812,1.861628 0.05143,0.04588 0.112647,0.08463 0.178203,0.114178 0.06565,0.03188 0.131205,0.03188 0.199043,0.0045 0.06556,-0.02732 0.124211,-0.0662 0.173448,-0.116682 0.217928,-0.210282 0.433337,-0.420884 0.639608,-0.638222 0.290477,-0.308799 0.567107,-0.626476 0.817811,-0.96728 0.22744,-0.308665 0.431147,-0.63349 0.580954,-0.9856745 C 12.9611,7.4220878 13.033928,7.0610251 12.984738,6.6813883 12.902728,6.0549119 12.628707,5.5241301 12.138905,5.1079362 11.559771,4.6166056 10.885193,4.4198898 10.126037,4.5294697 8.8913013,4.708066 7.9961841,5.7692197 8.0009396,6.960622 Z"/>
 <path style="fill:#10b7d6" d="M 8.0009396,6.4606963 C 7.9939496,6.632191 8.0265846,6.819665 8.0807156,7.0071843 8.1838511,7.3639675 8.3547801,7.6908857 8.5563428,7.9996857 9.01551,8.701917 9.594271,9.303126 10.222224,9.861314 c 0.05143,0.04588 0.112647,0.08463 0.178203,0.114178 0.06565,0.03188 0.131205,0.03188 0.199043,0.0045 0.06556,-0.02732 0.124211,-0.0662 0.173448,-0.116682 0.217928,-0.210282 0.433337,-0.420884 0.639608,-0.638222 0.290477,-0.308799 0.567107,-0.626476 0.817811,-0.96728 0.22744,-0.3086654 0.431147,-0.6334897 0.580954,-0.9856745 C 12.9611,6.9220878 13.033928,6.5610251 12.984738,6.1813883 12.902728,5.5549119 12.628707,5.0241301 12.138905,4.6079362 11.559771,4.1166056 10.885193,3.9198898 10.126037,4.0294697 8.8913013,4.208066 7.9961841,5.2692197 8.0009396,6.460622 Z"/>
 <path style="opacity:0.2" d="m 14.335569,15.499309 c -0.163184,0.0047 -0.346407,-0.0145 -0.529581,-0.05156 -0.541942,-0.112984 -1.002242,-0.347655 -1.355985,-0.76371 -0.215132,-0.253712 -0.395992,-0.528664 -0.551887,-0.817838 -0.183273,-0.340733 -0.336412,-0.695733 -0.469952,-1.055085 -0.163183,-0.434673 -0.301746,-0.878846 -0.408401,-1.32779 -0.05925,-0.251513 0.0075,-0.409082 0.299432,-0.495728 0.371027,-0.110411 0.744812,-0.209126 1.125834,-0.289175 0.63082,-0.131651 1.266664,-0.216097 1.915209,-0.195278 0.183223,0.007 0.366054,0.02573 0.546915,0.05628 0.524607,0.08707 0.969889,0.317387 1.33358,0.681509 0.621218,0.62041 0.868307,1.36068 0.71512,2.204485 -0.220155,1.205729 -1.343626,2.063383 -2.620284,2.053885 z"/>
 <path style="fill:#ff5e5e" d="m 14.335569,14.999309 c -0.163184,0.0047 -0.346407,-0.0145 -0.529581,-0.05156 -0.541942,-0.112984 -1.002242,-0.347655 -1.355985,-0.76371 -0.215132,-0.253712 -0.395992,-0.528664 -0.551887,-0.817838 -0.183273,-0.340733 -0.336412,-0.695733 -0.469952,-1.055085 -0.163183,-0.434673 -0.301746,-0.878846 -0.408401,-1.32779 -0.05925,-0.251513 0.0075,-0.409082 0.299432,-0.495728 0.371027,-0.110411 0.744812,-0.209126 1.125834,-0.289175 0.63082,-0.131651 1.266664,-0.216097 1.915209,-0.195278 0.183223,0.007 0.366054,0.02573 0.546915,0.05628 0.524607,0.08707 0.969889,0.317387 1.33358,0.681509 0.621218,0.62041 0.868307,1.36068 0.71512,2.204485 -0.220155,1.205729 -1.343626,2.063383 -2.620284,2.053885 z"/>
 <path style="opacity:0.1;fill:#ffffff" d="M 10.019531,1 C 9.917026,1.026125 9.809537,1.015891 9.707031,1.025391 9.129669,1.0732706 8.55841,1.1736494 8,1.3261719 6.84974,1.6409544 5.7969687,2.1540644 4.8398438,2.8652344 4.2528863,3.3017594 3.722625,3.801155 3.25,4.359375 2.7728625,4.92282 2.3673181,5.5331931 2.0332031,6.1894531 1.5486081,7.1415431 1.2331513,8.145733 1.0898438,9.205078 1.0608687,9.424433 1.0372656,9.647173 1.0253906,9.869141 1.0230156,9.914408 1.016625,9.958728 1,10.001953 l 0,0.5 C 1.016625,10.458733 1.023016,10.414403 1.025391,10.369141 1.037266,10.147173 1.060869,9.924433 1.089844,9.705078 1.2331513,8.645733 1.5486081,7.6415431 2.0332031,6.6894531 2.3673181,6.0331931 2.7728625,5.42282 3.25,4.859375 3.722625,4.301155 4.2528863,3.8017594 4.8398438,3.3652344 5.7969687,2.6540644 6.84974,2.1409544 8,1.8261719 8.55841,1.6736494 9.129669,1.5732706 9.707031,1.5253906 9.809537,1.5158906 9.917026,1.526125 10.019531,1.5 l 0.962891,0 c 0.07391,0.021375 0.150746,0.010453 0.224609,0.017578 0.38209,0.03325 0.761806,0.080435 1.138672,0.1542969 1.186264,0.2338425 2.285807,0.6781519 3.302735,1.3339844 0.790115,0.5082025 1.48718,1.1205819 2.095703,1.8339844 0.489392,0.5727074 0.905132,1.1965406 1.24414,1.8691406 0.400947,0.7947225 0.68697,1.6263386 0.84961,2.5019537 0.08579,0.462839 0.150158,0.929861 0.152343,1.402343 0,0.03135 0.0074,0.06492 0.0098,0.0957 l 0,-0.5 c -0.0024,-0.03078 -0.0098,-0.06435 -0.0098,-0.0957 -0.0022,-0.472482 -0.06655,-0.939504 -0.152343,-1.4023431 -0.16264,-0.8756154 -0.448663,-1.707231 -0.84961,-2.5019535 -0.339008,-0.6726 -0.754748,-1.2964332 -1.24414,-1.8691406 C 17.135618,3.6264413 16.438553,3.0140619 15.648438,2.5058594 14.63151,1.8500269 13.531967,1.4057175 12.345703,1.171875 11.968837,1.098013 11.589121,1.0508281 11.207031,1.0175781 11.133168,1.0104531 11.056332,1.021375 10.982422,1 l -0.962891,0 z"/>
 <path style="opacity:0.1;fill:#ffffff" d="m 6.640625,10.003906 c -0.1832235,0.007 -0.366015,0.02414 -0.546875,0.05469 -0.5246072,0.08707 -0.970295,0.317518 -1.3339844,0.68164 -0.5594038,0.558678 -0.796915,1.219794 -0.7304687,1.960938 0.062557,-0.53942 0.30011,-1.031138 0.7304687,-1.460938 0.3636894,-0.364122 0.8093772,-0.59457 1.3339844,-0.68164 0.18086,-0.03055 0.3636515,-0.04769 0.546875,-0.05469 0.6485454,-0.02082 1.2832428,0.06366 1.9140625,0.195313 0.3810212,0.08005 0.7559275,0.178653 1.1269535,0.289062 0.123702,0.0367 0.199617,0.08844 0.25,0.152344 0.0136,-0.05335 0.03612,-0.104707 0.04883,-0.158203 0.05925,-0.251513 -0.0068,-0.407495 -0.298828,-0.494141 C 9.310615,10.377872 8.9357087,10.279268 8.5546875,10.199219 7.9238678,10.067568 7.2891704,9.983087 6.640625,10.003906 Z"/>
 <path style="opacity:0.1;fill:#ffffff" d="m 10.679688,4.0039062 c -0.179047,-0.010709 -0.362946,-0.002 -0.552735,0.025391 C 8.8922174,4.2078932 7.9952445,5.2695352 8,6.4609375 7.9975023,6.522217 8.0225029,6.591617 8.0292969,6.65625 8.1636018,5.5939177 8.9992558,4.6924108 10.126953,4.5292969 c 0.759156,-0.1095799 1.432585,0.086794 2.011719,0.578125 0.477607,0.4058321 0.746632,0.9230753 0.835937,1.5292969 0.01759,-0.1494951 0.02987,-0.299892 0.0098,-0.4550782 C 12.902365,5.5551642 12.628474,5.0236158 12.138672,4.6074219 11.704321,4.2389239 11.216828,4.0360347 10.679688,4.0039062 Z"/>
 <path style="opacity:0.1;fill:#ffffff" d="m 14.359375,10.003906 c -0.648545,-0.02082 -1.283243,0.06366 -1.914063,0.195313 -0.381021,0.08005 -0.755926,0.178651 -1.126953,0.289062 -0.291932,0.08665 -0.358078,0.242628 -0.298828,0.494141 0.01271,0.0535 0.03522,0.10485 0.04883,0.158203 0.05039,-0.0639 0.12634,-0.115641 0.25,-0.152344 0.371027,-0.110411 0.745932,-0.209013 1.126953,-0.289062 0.63082,-0.131651 1.265518,-0.216132 1.914063,-0.195313 0.183223,0.007 0.366014,0.02414 0.546875,0.05469 0.524607,0.08707 0.970293,0.317518 1.333984,0.68164 0.43036,0.4298 0.667912,0.921518 0.730469,1.460938 0.06645,-0.741144 -0.171064,-1.40226 -0.730469,-1.960938 -0.363691,-0.364122 -0.809377,-0.59457 -1.333984,-0.68164 -0.180861,-0.03055 -0.363652,-0.04769 -0.546875,-0.05469 z"/>
</svg>
